assets/svg/1F606.svg

<svg xmlns="http://www.w3.org/2000/svg" viewBox="0 0 64 64" enable-background="new 0 0 64 64"><path fill="#fbb041" d="m64 31.691c0 17.584-14.326 31.838-32 31.838s-32-14.254-32-31.838c0-17.586 14.326-31.837 32-31.837s32 14.251 32 31.837"/><g opacity=".987"><path fill="#e79d3c" d="m15.229 40.896c-5.67-12.1-5.924-25.13-.799-35.904-8.686 5.691-14.43 15.47-14.43 26.596 0 17.586 14.326 31.837 32 31.837.313 0 .622-.039.937-.049-7.337-6.14-13.519-13.535-17.708-22.48"/></g><path fill="#633d19" d="m52.1 39.05c0 10.954-8.933 19.844-19.947 19.844-11.01 0-19.941-8.89-19.941-19.844"/><path fill="#fff" d="m48.688 41.05c0 4.374-7.554 7.927-16.864 7.927-9.303 0-16.857-3.553-16.857-7.927"/><g fill="#633d19"><path d="m29.11 27.27c-3.054-4.998-9.248-8.07-15.12-8.247-2.03-.062-2.024 3.01 0 3.071 2.819.088 5.756 1.026 8.211 2.608-.122.203-.284 2.536-.204 2.725-2.884.341-5.785.586-8.621 1.249-1.974.459-1.136 3.422.837 2.962 4.593-1.073 9.36-1.04 13.958-2.113.987-.229 1.447-1.424.94-2.255"/><path d="m35.486 29.529c4.599 1.073 9.363 1.04 13.958 2.113 1.972.46 2.81-2.503.839-2.962-2.837-.662-5.738-.908-8.623-1.249.081-.189-.083-2.522-.203-2.725 2.452-1.582 5.392-2.52 8.209-2.608 2.024-.062 2.032-3.134 0-3.071-5.87.179-12.06 3.249-15.12 8.247-.508.831-.049 2.026.939 2.255"/></g></svg>

<?xml version="1.0" encoding="UTF-8" standalone="no"?>
<!-- Generator: Adobe Illustrator 16.0.0, SVG Export Plug-In . SVG Version: 6.00 Build 0)  -->

<svg
   xmlns:dc="http://purl.org/dc/elements/1.1/"
   xmlns:cc="http://creativecommons.org/ns#"
   xmlns:rdf="http://www.w3.org/1999/02/22-rdf-syntax-ns#"
   xmlns:svg="http://www.w3.org/2000/svg"
   xmlns="http://www.w3.org/2000/svg"
   xmlns:sodipodi="http://sodipodi.sourceforge.net/DTD/sodipodi-0.dtd"
   xmlns:inkscape="http://www.inkscape.org/namespaces/inkscape"
   version="1.1"
   id="Layer_1"
   x="0px"
   y="0px"
   width="64px"
   height="64px"
   viewBox="0 0 64 64"
   enable-background="new 0 0 64 64"
   xml:space="preserve"
   inkscape:version="0.48.5 r10040"
   sodipodi:docname="1F606.svg"
   inkscape:export-filename="D:\TESTINGEMOJI\SVGTEST\1F606.png"
   inkscape:export-xdpi="90"
   inkscape:export-ydpi="90"><metadata
   id="metadata3928"><rdf:RDF><cc:Work
       rdf:about=""><dc:format>image/svg+xml</dc:format><dc:type
         rdf:resource="http://purl.org/dc/dcmitype/StillImage" /><dc:title></dc:title></cc:Work></rdf:RDF></metadata><defs
   id="defs3926" /><sodipodi:namedview
   pagecolor="#ffffff"
   bordercolor="#666666"
   borderopacity="1"
   objecttolerance="10"
   gridtolerance="10"
   guidetolerance="10"
   inkscape:pageopacity="0"
   inkscape:pageshadow="2"
   inkscape:window-width="640"
   inkscape:window-height="480"
   id="namedview3924"
   showgrid="false"
   inkscape:zoom="3.6875"
   inkscape:cx="32"
   inkscape:cy="32"
   inkscape:window-x="949"
   inkscape:window-y="344"
   inkscape:window-maximized="0"
   inkscape:current-layer="Layer_1" />
<g
   id="g3892">
	<g
   id="g3894">
		<g
   id="g3896">
			<path
   fill="#FBB041"
   d="M64,31.691c0,17.584-14.326,31.838-32,31.838S0,49.275,0,31.691C0,14.105,14.326-0.146,32-0.146     S64,14.105,64,31.691z"
   id="path3898" />
		</g>
	</g>
	<g
   opacity="0.9866"
   id="g3900">
		<g
   id="g3902">
			<g
   id="g3904">
				<path
   fill="#E79D3C"
   d="M15.229,40.896C9.559,28.793,9.305,15.763,14.43,4.992C5.744,10.683,0,20.462,0,31.588      c0,17.586,14.326,31.837,32,31.837c0.313,0,0.622-0.039,0.937-0.049C25.6,57.236,19.418,49.841,15.229,40.896z"
   id="path3906" />
			</g>
		</g>
	</g>
	<g
   id="g3908">
		<g
   id="g3910">
			<path
   fill="#633D19"
   d="M52.105,39.05c0,10.954-8.933,19.844-19.947,19.844c-11.006,0-19.941-8.89-19.941-19.844"
   id="path3912" />
		</g>
	</g>
	<g
   id="g3914">
		<g
   id="g3916">
			<path
   fill="#FFFFFF"
   d="M48.688,41.045c0,4.374-7.554,7.927-16.864,7.927c-9.303,0-16.857-3.553-16.857-7.927"
   id="path3918" />
		</g>
	</g>
	<path
   fill="#633D19"
   d="M29.106,27.274c-3.054-4.998-9.248-8.067-15.121-8.247c-2.03-0.062-2.024,3.009,0,3.071   c2.819,0.088,5.756,1.026,8.211,2.608c-0.122,0.203-0.284,2.536-0.204,2.725c-2.884,0.341-5.785,0.586-8.621,1.249   c-1.974,0.459-1.136,3.422,0.837,2.962c4.593-1.073,9.36-1.04,13.958-2.113C29.153,29.3,29.613,28.105,29.106,27.274z"
   id="path3920" />
	<path
   fill="#633D19"
   d="M35.486,29.529c4.599,1.073,9.363,1.04,13.958,2.113c1.972,0.46,2.81-2.503,0.839-2.962   c-2.837-0.662-5.738-0.908-8.623-1.249c0.081-0.189-0.083-2.522-0.203-2.725c2.452-1.582,5.392-2.52,8.209-2.608   c2.024-0.062,2.032-3.134,0-3.071c-5.87,0.179-12.065,3.249-15.119,8.247C34.039,28.105,34.498,29.3,35.486,29.529z"
   id="path3922" />
</g>
</svg>
